X: 7914
T: Concert, The
R: hornpipe
M: 4/4
K: Fmajor
F>_E|:D>Fd>F D>Fd>F|_E>Fc>F D>F d2|_e2 d>e c>d B>c|A>B G>A F2 F>_E|
D>Fd>F D>Fd>F|_E>Fc>F D>F d2|_e2 d>e c>d B>c|1 A>G (3FGA B2F>_E:|2 A>G (3FGA B2B>c||
|:d>Dc>D B>DA>D|G>DG>B d>B G2|^F>DF>A d>A F2|GDGB d>B G2|
d>Dc>D B>DA>D|G>DG>B d>B G2|^F>DF>A d>AF>D|1 G2 B2 G2 B>c:|2 G2 B2 G2 F>_E||

